!! 00000] TT[00
!! NN
!!!OTL: Shandan hong hua kai
!!!ARE: Ningxia, Yinchuan
!! Ethnic Group: Hui
!! I, 199
!!!SCT: C0057
!!!YEM: Copyright 1995, estate of Helmut Schaffrath.
**kern
*ICvox
*Ivox
*M2/4
*k[f#c#g#]
*A:
{8b
8ee
16b
16cc#
16b
16a
=1
16b
16a
8f#
4e}
=2
{8.ee
16ff#
16ee
16dd
16b
16dd
=3
2ee}
=4
{8.ee
16ff#
16ee
16dd
16b
16dd
=5
2ee}
=6
{8b
8ee
16b
16cc#
16b
16a
=7
16b
16a
8f#
4e}
=8
{4b
8a
8f#
=9
8b
16b
16a
8f#
8e}
=10
{8f#
8f#
16a
16b
16a
16f#
=11
2e}
==
!!!AGN: Xiaodiao. Biaoda aiqing
!! 
!!!ONB: ESAC (Essen Associative Code) Database: CHINA
!!!AMT: simple duple
!!!AIN: vox
!!!EED: Helmut Schaffrath
!!!EEV: 1.0
*-
